X:1
T:Freedom in Jesus
T:Freedom in Jesus
T:William James Kirkpatrick
T:Emma F. Bennett, 1903
T:Public Domain Courtesy of the Cyber Hymnal™
T:Public Domain Courtesy of the Cyber Hymnal™
C:William James Kirkpatrick
Z:Public Domain
Z:Courtesy of the Cyber Hymnal™
%%score ( 1 2 ) ( 3 4 )
L:1/8
Q:1/4=85
M:6/8
K:G
V:1 treble 
V:2 treble 
V:3 bass 
V:4 bass 
V:1
 D | [DG][DG][DG] [GB]>[DA][DG] | [EG][CE][CG] [B,D]2 D | [DG][DG][DG] [GB]>[DA][DG] | %4
w: 1.~I’m|hap- py in Je- sus, re-|joic- ing to- day; And|Je- sus my Sav- ior with|
w: 2.~This|free- dom in Je- sus means|bless- èd re- lease, From|sin and from sin- ning for-|
w: 3.~This|free- dom in Je- sus is|glo- ri- ous rest, A|peace- ful re- clin- ing on|
w: 4.~His|love is so ten- der, His|power so di- vine, My|all to His keep- ing I|
w: 5.~No|long- er I’m fet- tered, the|Lord has con- trol; The|clear light of Hea- ven breaks|
 [GB][GA][GA] [FA]2 [GB] | [Gd]>[Gd][Gd] [GB][DA][DG] | [EA][EG][CE] [EG]2 [Gc] | %7
w: me has His way; The|Com- for- ter comes in my|glad heart to stay; O|
w: ev- er to cease; And|free- dom from self brings such|in- fi- nite peace; O|
w: His lov- ing breast; And|when I just trust Him my|soul is so blest; O|
w: glad- ly re- sign; A|ves- sel of clay for my|Lord to de- sign; O|
w: in on my soul; I’ll|sing while the years of e-|ter- ni- ty roll, O|
 [GB][GB]>G [GB][GB]>[FA] | [DG]3- [DG]2 ||"^Refrain" [GB] | [Gd]3 [Gd]3 | %11
w: glo- ry to Je- sus! I’m|free! *|||
w: glo- ry to Je- sus! I’m|free! *|||
w: glo- ry to Je- sus! I’m|free! *|I’m|free, free!|
w: glo- ry to Je- sus! I’m|free! *|||
w: glo- ry to Je- sus! I’m|free! *|||
 [Ge][Gd][GB] [Gd]2 [Gc] | [GB][DA][DG] [GB][DA][EG] | ([F-A]3 !fermata![Fd]2) [CD] | %14
w: |||
w: |||
w: glor- ious- ly free! No|long- er by sin I am|bound; * The|
w: |||
w: |||
 [B,G][B,G][B,G] [DB][DA][DG] | [EG][CE][CG] !fermata![B,D]2 !fermata![Gd] | %16
w: ||
w: ||
w: pre- cious blood cleans- eth and|sa- tis- fies me, This|
w: ||
w: ||
 [Gd]<[GB]G [GB]!fermata![GB][FA] | [DG]3- [DG]2 |] %18
w: ||
w: ||
w: free- dom in Je- sus I’ve|found. *|
w: ||
w: ||
V:2
 D | x6 | x5 D | x6 | x6 | x6 | x6 | x5/2 G/ x3 | x5 || x | x6 | x6 | x6 | x6 | x6 | x6 | x2 G x3 | %17
 x5 |] %18
V:3
 [G,B,] | [G,B,][G,B,][G,B,] [G,D]>[G,C][G,B,] | [C,C][C,G,][E,G,] G,2 [G,B,] | %3
w: ~|~ ~ ~ ~ ~ ~|~ ~ ~ ~ ~|
 [G,B,][G,B,][G,B,] [G,D]>[G,C][G,B,] | [E,^C][E,C][E,C] [D,D]2 [G,D] | %5
w: ~ ~ ~ ~ ~ ~|~ ~ ~ ~ ~|
 [G,B,]>[G,B,][G,B,] [G,D][G,C][G,B,] | [C,C][C,C][C,G,] [C,C]2 [C,E] | %7
w: ~ ~ ~ ~ ~ ~|~ ~ ~ ~ ~|
 [D,D][D,D]>[D,B,] [D,D][D,D]>[D,C] | [G,B,]3- [G,B,]2 || [G,D] | [G,B,]2 [G,B,] [G,B,]2 [G,B,] | %11
w: ~ ~ ~ ~ ~ ~|~ *|~|~ I’m free, I’m|
 [G,C][G,B,][G,D] [G,B,]2 [G,E] | [G,D][G,C][G,B,] [G,D][F,D][E,^C] | %13
w: ||
 ([D,-D]3 !fermata![D,A,]2) [D,F,] | [G,,G,][G,,D,][G,,D,] [G,,G,][A,,F,][B,,G,] | %15
w: ||
 [C,G,][C,G,][E,G,] !fermata!G,2 !fermata![G,B,] | [G,B,]<[G,D][G,B,] [D,D]!fermata![D,D][D,C] | %17
w: ||
 [G,,G,B,]3- [G,,G,B,]2 |] %18
w: |
V:4
 x | x6 | x3 G,2 x | x6 | x6 | x6 | x6 | x6 | x5 || x | x6 | x6 | x6 | x6 | x6 | x3 G,2 x | x6 | %17
 x5 |] %18

